src/lib/packages/icons/src/assets/filled/cloud-connection.svg

<svg width="24" height="24" viewBox="0 0 24 24" fill="none" xmlns="http://www.w3.org/2000/svg">
<path d="M19.75 20C19.75 20.414 19.414 20.75 19 20.75H13.8521C13.5551 21.482 12.839 22 12 22C11.161 22 10.4449 21.482 10.1479 20.75H5C4.586 20.75 4.25 20.414 4.25 20C4.25 19.586 4.586 19.25 5 19.25H10.1479C10.3509 18.75 10.749 18.351 11.25 18.148V15H9.5C5.91 15 3 12.09 3 8.5C3 4.91 5.91 2 9.5 2C11.146 2 12.648 2.61297 13.792 3.62097C14.274 4.04597 14.692 4.54103 15.031 5.09003C15.351 5.03003 15.671 5 16.001 5C18.761 5 21.001 7.24 21.001 10C21.001 12.76 18.761 15 16.001 15H12.751V18.148C13.251 18.351 13.65 18.749 13.853 19.25H19C19.414 19.25 19.75 19.586 19.75 20Z" fill="currentColor"/>
</svg>

<svg xmlns="http://www.w3.org/2000/svg" width="24" height="24" fill="none"><path fill="currentColor" d="M19.75 20a.75.75 0 0 1-.75.75h-5.148A2 2 0 0 1 12 22a2 2 0 0 1-1.852-1.25H5a.75.75 0 0 1 0-1.5h5.148c.203-.5.601-.899 1.102-1.102V15H9.5a6.5 6.5 0 1 1 5.531-9.91c.32-.06.64-.09.97-.09 2.76 0 5 2.24 5 5s-2.24 5-5 5h-3.25v3.148c.5.203.899.601 1.102 1.102H19a.75.75 0 0 1 .75.75Z"/></svg>
